src/components/icons/assets/search.svg

<svg width="24" height="24" viewBox="0 0 24 24" fill="none" xmlns="http://www.w3.org/2000/svg">
<path d="M23.6696 20.7495L18.9966 16.0766C18.7857 15.8656 18.4998 15.7485 18.1998 15.7485H17.4358C18.7294 14.0939 19.4981 12.0129 19.4981 9.74905C19.4981 4.36364 15.1345 0 9.74905 0C4.36364 0 0 4.36364 0 9.74905C0 15.1345 4.36364 19.4981 9.74905 19.4981C12.0129 19.4981 14.0939 18.7294 15.7485 17.4358V18.1998C15.7485 18.4998 15.8656 18.7857 16.0766 18.9966L20.7495 23.6696C21.1901 24.1101 21.9025 24.1101 22.3384 23.6696L23.6649 22.3431C24.1055 21.9025 24.1055 21.1901 23.6696 20.7495ZM9.74905 15.7485C6.43531 15.7485 3.74963 13.0675 3.74963 9.74905C3.74963 6.43531 6.43062 3.74963 9.74905 3.74963C13.0628 3.74963 15.7485 6.43062 15.7485 9.74905C15.7485 13.0628 13.0675 15.7485 9.74905 15.7485Z" fill="#616161"/>
</svg>

<svg viewBox="0 0 24 24" xmlns="http://www.w3.org/2000/svg"><path d="M23.67 20.75l-4.673-4.673a1.124 1.124 0 00-.797-.329h-.764a9.702 9.702 0 002.062-5.999A9.748 9.748 0 009.75 0 9.748 9.748 0 000 9.75a9.748 9.748 0 009.75 9.748 9.702 9.702 0 005.998-2.062v.764c0 .3.118.586.329.797l4.672 4.673c.441.44 1.154.44 1.59 0l1.326-1.327c.44-.44.44-1.153.005-1.593zM9.749 15.748c-3.314 0-6-2.68-6-5.999 0-3.314 2.682-6 6-6 3.314 0 6 2.682 6 6 0 3.314-2.681 6-6 6z"/></svg>
